telma/img/buttons/selection-form/copy.svg

<?xml version="1.0" encoding="UTF-8" standalone="no"?>
<!-- Created with Inkscape (http://www.inkscape.org/) -->
<svg
   xmlns:dc="http://purl.org/dc/elements/1.1/"
   xmlns:cc="http://creativecommons.org/ns#"
   xmlns:rdf="http://www.w3.org/1999/02/22-rdf-syntax-ns#"
   xmlns:svg="http://www.w3.org/2000/svg"
   xmlns="http://www.w3.org/2000/svg"
   xmlns:xlink="http://www.w3.org/1999/xlink"
   xmlns:sodipodi="http://sodipodi.sourceforge.net/DTD/sodipodi-0.dtd"
   xmlns:inkscape="http://www.inkscape.org/namespaces/inkscape"
   width="600"
   height="600"
   id="svg2"
   sodipodi:version="0.32"
   inkscape:version="0.46"
   version="1.0"
   sodipodi:docname="Copy.svg"
   inkscape:output_extension="org.inkscape.output.svg.inkscape"
   inkscape:export-filename="D:\Documents and Settings\Маша\Рабочий стол\TELMA.V20\Projects\Interfaces\CurveEditor\SelectionPanel\images\Copy.png"
   inkscape:export-xdpi="4.800683"
   inkscape:export-ydpi="4.800683">
  <defs
     id="defs4">
    <linearGradient
       inkscape:collect="always"
       id="linearGradient3391">
      <stop
         style="stop-color:#ff0000;stop-opacity:1;"
         offset="0"
         id="stop3393" />
      <stop
         style="stop-color:#ff0000;stop-opacity:0;"
         offset="1"
         id="stop3395" />
    </linearGradient>
    <linearGradient
       inkscape:collect="always"
       id="linearGradient3267">
      <stop
         style="stop-color:#ff0000;stop-opacity:1;"
         offset="0"
         id="stop3269" />
      <stop
         style="stop-color:#ff0000;stop-opacity:0;"
         offset="1"
         id="stop3271" />
    </linearGradient>
    <linearGradient
       inkscape:collect="always"
       xlink:href="#linearGradient3267"
       id="linearGradient3273"
       x1="123.15675"
       y1="130.17917"
       x2="131.75237"
       y2="121.43824"
       gradientUnits="userSpaceOnUse"
       gradientTransform="matrix(0.4886094,-3.0688775,0.4738435,3.1645097,142.81868,283.077)" />
    <linearGradient
       id="linearGradient3253">
      <stop
         style="stop-color:#ff0000;stop-opacity:1;"
         offset="0"
         id="stop3255" />
      <stop
         style="stop-color:#ff0000;stop-opacity:0;"
         offset="1"
         id="stop3257" />
    </linearGradient>
    <linearGradient
       inkscape:collect="always"
       xlink:href="#linearGradient3253"
       id="linearGradient3261"
       x1="-74.741104"
       y1="-86.035858"
       x2="135.15765"
       y2="-184.30978"
       gradientUnits="userSpaceOnUse" />
    <linearGradient
       id="linearGradient4618">
      <stop
         style="stop-color:#b8b8dc;stop-opacity:1;"
         offset="0"
         id="stop4620" />
      <stop
         style="stop-color:#ffffff;stop-opacity:0;"
         offset="1"
         id="stop4622" />
    </linearGradient>
    <linearGradient
       id="linearGradient3176">
      <stop
         id="stop3178"
         offset="0"
         style="stop-color:#ff0000;stop-opacity:1;" />
      <stop
         id="stop3180"
         offset="1"
         style="stop-color:#00d63b;stop-opacity:0;" />
    </linearGradient>
    <linearGradient
       id="linearGradient3170">
      <stop
         style="stop-color:#ff0000;stop-opacity:1;"
         offset="0"
         id="stop3172" />
      <stop
         style="stop-color:#00d63b;stop-opacity:0;"
         offset="1"
         id="stop3174" />
    </linearGradient>
    <linearGradient
       id="linearGradient3164">
      <stop
         id="stop3166"
         offset="0"
         style="stop-color:#ff0000;stop-opacity:1;" />
      <stop
         id="stop3168"
         offset="1"
         style="stop-color:#00d63b;stop-opacity:0;" />
    </linearGradient>
    <linearGradient
       id="linearGradient5422">
      <stop
         style="stop-color:#ff0000;stop-opacity:1;"
         offset="0"
         id="stop5424" />
      <stop
         style="stop-color:#00d63b;stop-opacity:0;"
         offset="1"
         id="stop5426" />
    </linearGradient>
    <inkscape:perspective
       sodipodi:type="inkscape:persp3d"
       inkscape:vp_x="0 : 526.18109 : 1"
       inkscape:vp_y="6.1230318e-14 : 1000 : 0"
       inkscape:vp_z="744.09448 : 526.18109 : 1"
       inkscape:persp3d-origin="372.04724 : 350.78739 : 1"
       id="perspective10" />
    <linearGradient
       inkscape:collect="always"
       xlink:href="#linearGradient3391"
       id="linearGradient3397"
       x1="261.60715"
       y1="400.5"
       x2="261.60715"
       y2="76.889999"
       gradientUnits="userSpaceOnUse"
       gradientTransform="translate(-65.714289,41.428576)" />
  </defs>
  <sodipodi:namedview
     id="base"
     pagecolor="#ffffff"
     bordercolor="#666666"
     borderopacity="1.0"
     gridtolerance="10000"
     guidetolerance="10"
     objecttolerance="10"
     inkscape:pageopacity="0.0"
     inkscape:pageshadow="2"
     inkscape:zoom="0.7"
     inkscape:cx="-231.61087"
     inkscape:cy="287.30671"
     inkscape:document-units="px"
     inkscape:current-layer="layer1"
     showgrid="false"
     showguides="true"
     inkscape:showpageshadow="false"
     inkscape:window-width="1029"
     inkscape:window-height="676"
     inkscape:window-x="27"
     inkscape:window-y="35"
     showborder="true">
    <inkscape:grid
       type="xygrid"
       visible="true"
       enabled="true"
       id="grid2393" />
  </sodipodi:namedview>
  <metadata
     id="metadata7">
    <rdf:RDF>
      <cc:Work
         rdf:about="">
        <dc:format>image/svg+xml</dc:format>
        <dc:type
           rdf:resource="http://purl.org/dc/dcmitype/StillImage" />
      </cc:Work>
    </rdf:RDF>
  </metadata>
  <g
     inkscape:label="Layer 1"
     inkscape:groupmode="layer"
     id="layer1">
    <rect
       ry="90"
       rx="90"
       y="10.602222"
       x="11.58176"
       height="576.74463"
       width="577.10175"
       id="rect2390"
       style="opacity:1;fill:none;fill-opacity:1;stroke:none;stroke-width:1;stroke-linecap:round;stroke-linejoin:miter;stroke-miterlimit:4;stroke-dasharray:none;stroke-dashoffset:0;stroke-opacity:1"
       inkscape:export-filename="P:\TELMA.V20\telma.v20_10_11\Projects\Interfaces\BaseInterface\CurveEditor\SelectionPanel\images\Copy.png"
       inkscape:export-xdpi="4.9904542"
       inkscape:export-ydpi="4.9904542" />
    <rect
       style="opacity:1;fill:none;fill-opacity:0;stroke:none;stroke-width:23.17000008000000100;stroke-linecap:round;stroke-linejoin:miter;stroke-miterlimit:4;stroke-dasharray:none;stroke-dashoffset:0;stroke-opacity:1"
       id="rect5264"
       width="577.10175"
       height="576.74463"
       x="11.581718"
       y="11.612374"
       rx="90"
       ry="90"
       inkscape:export-filename="D:\Documents and Settings\Маша\Рабочий стол\TELMA.V20\Projects\Interfaces\CurveEditor\SelectionPanel\images\Copy.png"
       inkscape:export-xdpi="4.800683"
       inkscape:export-ydpi="4.800683" />
  </g>
  <g
     inkscape:groupmode="layer"
     id="layer2"
     inkscape:label="Линия">
    <path
       style="fill:none;fill-rule:evenodd;stroke:#000000;stroke-width:30;stroke-linecap:round;stroke-linejoin:miter;stroke-miterlimit:4;stroke-dasharray:none;stroke-opacity:1"
       d="M 499.85643,77.340722 L 499.85643,402.65928"
       id="path2422" />
    <path
       id="path3217"
       d="M 388.57143,77.340722 L 388.57143,402.65928"
       style="fill:none;fill-rule:evenodd;stroke:#000000;stroke-width:30;stroke-linecap:round;stroke-linejoin:miter;stroke-miterlimit:4;stroke-dasharray:none;stroke-opacity:1" />
    <path
       style="fill:none;fill-rule:evenodd;stroke:#000000;stroke-width:30;stroke-linecap:round;stroke-linejoin:miter;stroke-miterlimit:4;stroke-dasharray:none;stroke-opacity:1"
       d="M 97.142864,160.19787 L 97.142864,485.51643"
       id="path3223" />
  </g>
  <g
     inkscape:groupmode="layer"
     id="layer4"
     inkscape:label="Strelki">
    <path
       sodipodi:type="star"
       style="opacity:1;fill:url(#linearGradient3261);fill-opacity:1;stroke:#000000;stroke-width:1;stroke-linecap:round;stroke-miterlimit:4;stroke-dasharray:none;stroke-opacity:1"
       id="path3487"
       sodipodi:sides="3"
       sodipodi:cx="-20"
       sodipodi:cy="-132.85715"
       sodipodi:r1="76.903938"
       sodipodi:r2="35.012089"
       sodipodi:arg1="-0.96046964"
       sodipodi:arg2="0.28773554"
       inkscape:flatsided="false"
       inkscape:rounded="0"
       inkscape:randomized="0"
       d="M 24.076354,-195.87691 L 13.572705,-122.92136 L 12.53854,-63.176023 L -45.390996,-108.75023 L -96.614894,-139.51851 L -28.181709,-166.89986 L 24.076354,-195.87691 z"
       transform="matrix(0.3732357,-0.9487573,0.797177,0.3975858,404.33899,285.12064)" />
    <path
       style="fill:url(#linearGradient3397);fill-opacity:1;fill-rule:evenodd;stroke:#000000;stroke-width:1px;stroke-linecap:butt;stroke-linejoin:miter;stroke-opacity:1"
       d="M 260.35713,229.28572 C 260.35713,229.28572 231.08929,227.492 211.42857,231.42858 C 191.68111,235.38254 181.27011,238.83142 165.55583,257.40285 C 149.84154,275.97428 149.24981,276.87547 142.85714,300.00001 C 138.97531,314.04196 131.42856,441.42858 131.42856,441.42858 C 131.42856,441.42858 149.99999,385.7143 168.57142,345.7143 C 187.14285,305.7143 193.01961,303.86301 196.14013,299.24984 C 199.50326,294.278 211.14419,283.58387 214.26187,281.33818 C 222.36052,275.50465 222.90947,275.26241 234.28571,272.85715 C 255.39401,268.39426 259.99999,270.35715 259.99999,270.35715 L 260.35713,229.28572 z"
       id="path3389"
       sodipodi:nodetypes="cssscsssscc" />
  </g>
  <g
     inkscape:groupmode="layer"
     id="layer3"
     inkscape:label="Узел">
    <path
       sodipodi:type="arc"
       style="opacity:1;fill:#ffffff;fill-opacity:1;stroke:#ff0000;stroke-width:117.96363831;stroke-linecap:round;stroke-linejoin:miter;stroke-miterlimit:4;stroke-dasharray:none;stroke-dashoffset:0;stroke-opacity:1"
       id="path3195"
       sodipodi:cx="741.42859"
       sodipodi:cy="400"
       sodipodi:rx="304.28571"
       sodipodi:ry="282.85715"
       d="M 1045.7143,400 A 304.28571,282.85715 0 1 1 437.14288,400 A 304.28571,282.85715 0 1 1 1045.7143,400 z"
       transform="matrix(0.1225987,0,0,0.1318865,410.38681,367.24541)" />
    <path
       transform="matrix(0.1225987,0,0,0.1318865,409.13156,38.8473)"
       d="M 1045.7143,400 A 304.28571,282.85715 0 1 1 437.14288,400 A 304.28571,282.85715 0 1 1 1045.7143,400 z"
       sodipodi:ry="282.85715"
       sodipodi:rx="304.28571"
       sodipodi:cy="400"
       sodipodi:cx="741.42859"
       id="path3197"
       style="opacity:1;fill:#ffffff;fill-opacity:1;stroke:#ff0000;stroke-width:117.96363831;stroke-linecap:round;stroke-linejoin:miter;stroke-miterlimit:4;stroke-dasharray:none;stroke-dashoffset:0;stroke-opacity:1"
       sodipodi:type="arc" />
    <path
       transform="matrix(0.1225987,0,0,0.1318865,299.10181,367.24541)"
       d="M 1045.7143,400 A 304.28571,282.85715 0 1 1 437.14288,400 A 304.28571,282.85715 0 1 1 1045.7143,400 z"
       sodipodi:ry="282.85715"
       sodipodi:rx="304.28571"
       sodipodi:cy="400"
       sodipodi:cx="741.42859"
       id="path3219"
       style="opacity:1;fill:#ffffff;fill-opacity:1;stroke:#ff0000;stroke-width:117.96363831;stroke-linecap:round;stroke-linejoin:miter;stroke-miterlimit:4;stroke-dasharray:none;stroke-dashoffset:0;stroke-opacity:1"
       sodipodi:type="arc" />
    <path
       sodipodi:type="arc"
       style="opacity:1;fill:#ffffff;fill-opacity:1;stroke:#ff0000;stroke-width:117.96363831;stroke-linecap:round;stroke-linejoin:miter;stroke-miterlimit:4;stroke-dasharray:none;stroke-dashoffset:0;stroke-opacity:1"
       id="path3221"
       sodipodi:cx="741.42859"
       sodipodi:cy="400"
       sodipodi:rx="304.28571"
       sodipodi:ry="282.85715"
       d="M 1045.7143,400 A 304.28571,282.85715 0 1 1 437.14288,400 A 304.28571,282.85715 0 1 1 1045.7143,400 z"
       transform="matrix(0.1225987,0,0,0.1318865,297.84656,38.8473)" />
    <path
       sodipodi:type="arc"
       style="opacity:1;fill:#ffffff;fill-opacity:1;stroke:#ff0000;stroke-width:117.96363831;stroke-linecap:round;stroke-linejoin:miter;stroke-miterlimit:4;stroke-dasharray:none;stroke-dashoffset:0;stroke-opacity:1"
       id="path3225"
       sodipodi:cx="741.42859"
       sodipodi:cy="400"
       sodipodi:rx="304.28571"
       sodipodi:ry="282.85715"
       d="M 1045.7143,400 A 304.28571,282.85715 0 1 1 437.14288,400 A 304.28571,282.85715 0 1 1 1045.7143,400 z"
       transform="matrix(0.1225987,0,0,0.1318865,7.6732413,450.10256)" />
    <path
       transform="matrix(0.1225987,0,0,0.1318865,6.4179913,121.70445)"
       d="M 1045.7143,400 A 304.28571,282.85715 0 1 1 437.14288,400 A 304.28571,282.85715 0 1 1 1045.7143,400 z"
       sodipodi:ry="282.85715"
       sodipodi:rx="304.28571"
       sodipodi:cy="400"
       sodipodi:cx="741.42859"
       id="path3227"
       style="opacity:1;fill:#ffffff;fill-opacity:1;stroke:#ff0000;stroke-width:117.96363831;stroke-linecap:round;stroke-linejoin:miter;stroke-miterlimit:4;stroke-dasharray:none;stroke-dashoffset:0;stroke-opacity:1"
       sodipodi:type="arc" />
  </g>
</svg>

<svg xmlns="http://www.w3.org/2000/svg" xmlns:xlink="http://www.w3.org/1999/xlink" width="600" height="600"><defs><linearGradient id="A" x1="-74.741" y1="-86.036" x2="135.158" y2="-184.31" gradientUnits="userSpaceOnUse"><stop offset="0" stop-color="red"/><stop offset="1" stop-color="red" stop-opacity="0"/></linearGradient><linearGradient id="B" x1="195.893" y1="441.929" x2="195.893" y2="118.319" gradientUnits="userSpaceOnUse"><stop offset="0" stop-color="red"/><stop offset="1" stop-color="red" stop-opacity="0"/></linearGradient><path id="C" d="M537.335 91.602c0 20.603-16.702 37.305-37.305 37.305s-37.305-16.702-37.305-37.305 16.702-37.305 37.305-37.305 37.305 16.702 37.305 37.305z"/></defs><path d="M499.856 77.341V402.66M388.571 77.341V402.66M97.143 160.198v325.319" fill="none" stroke="#000" stroke-width="30" stroke-linecap="round"/><path d="M24.076-195.877l-10.504 72.956-1.034 59.745-57.93-45.574-51.224-30.768 68.433-27.381 52.258-28.977z" transform="matrix(.373236 -.948757 .797177 .397586 404.33899 285.12064)" fill="url(#A)" stroke="#000"/><path d="M260.357 229.286s-29.268-1.794-48.929 2.143c-19.747 3.954-30.158 7.403-45.873 25.974S149.25 276.875 142.857 300c-3.882 14.042-11.429 141.429-11.429 141.429s18.571-55.714 37.143-95.714 24.448-41.851 27.569-46.464c3.363-4.972 15.004-15.666 18.122-17.912 8.099-5.834 8.648-6.076 20.024-8.481 21.108-4.463 25.714-2.5 25.714-2.5l.357-41.071z" fill="url(#B)" fill-rule="evenodd" stroke="#000"/><g fill="#fff" stroke="red" stroke-width="15.02"><path d="M538.59 420c0 20.603-16.702 37.305-37.305 37.305S463.98 440.603 463.98 420s16.702-37.305 37.305-37.305S538.59 399.397 538.59 420z"/><use xlink:href="#C"/><path d="M427.305 420c0 20.603-16.702 37.305-37.305 37.305S352.695 440.603 352.695 420s16.702-37.305 37.305-37.305 37.305 16.702 37.305 37.305z"/><use xlink:href="#C" x="-111.285"/><use xlink:href="#C" x="-401.459" y="411.255"/><use xlink:href="#C" x="-402.714" y="82.857"/></g></svg>
